icons/evolvere-blue-folders-flat-vivid-dark-fallback/apps/64/power-management.svg

<?xml version="1.0" encoding="UTF-8" standalone="no"?>
<!-- Created with Inkscape (http://www.inkscape.org/) -->

<svg
   xmlns:dc="http://purl.org/dc/elements/1.1/"
   xmlns:cc="http://creativecommons.org/ns#"
   xmlns:rdf="http://www.w3.org/1999/02/22-rdf-syntax-ns#"
   xmlns:svg="http://www.w3.org/2000/svg"
   xmlns="http://www.w3.org/2000/svg"
   xmlns:sodipodi="http://sodipodi.sourceforge.net/DTD/sodipodi-0.dtd"
   xmlns:inkscape="http://www.inkscape.org/namespaces/inkscape"
   width="64"
   height="64"
   id="svg13094"
   version="1.1"
   inkscape:version="0.91+devel r"
   sodipodi:docname="power-management.svg">
  <sodipodi:namedview
     id="base"
     pagecolor="#ffffff"
     bordercolor="#666666"
     borderopacity="1.0"
     inkscape:pageopacity="0"
     inkscape:pageshadow="2"
     inkscape:zoom="11.313709"
     inkscape:cx="33.721333"
     inkscape:cy="30.775698"
     inkscape:document-units="px"
     inkscape:current-layer="svg13094"
     showgrid="true"
     inkscape:snap-bbox="true"
     inkscape:bbox-paths="true"
     inkscape:bbox-nodes="true"
     inkscape:snap-bbox-edge-midpoints="true"
     inkscape:snap-bbox-midpoints="true"
     inkscape:object-paths="true"
     inkscape:snap-intersection-paths="true"
     inkscape:object-nodes="true"
     inkscape:snap-smooth-nodes="true"
     inkscape:snap-midpoints="true"
     inkscape:snap-object-midpoints="true"
     inkscape:snap-center="true"
     showguides="true"
     inkscape:guide-bbox="true"
     inkscape:window-width="1920"
     inkscape:window-height="1023"
     inkscape:window-x="-10"
     inkscape:window-y="35"
     inkscape:window-maximized="1"
     inkscape:snap-global="true"
     fit-margin-top="0"
     fit-margin-left="0"
     fit-margin-right="0"
     fit-margin-bottom="0"
     showborder="true"
     inkscape:showpageshadow="false"
     inkscape:snap-page="true">
    <inkscape:grid
       type="xygrid"
       id="grid3075"
       empspacing="5"
       visible="true"
       enabled="true"
       snapvisiblegridlinesonly="true"
       originx="1.6362304e-08px"
       originy="18px" />
  </sodipodi:namedview>
  <defs
     id="defs13096" />
  <metadata
     id="metadata13099">
    <rdf:RDF>
      <cc:Work
         rdf:about="">
        <dc:format>image/svg+xml</dc:format>
        <dc:type
           rdf:resource="http://purl.org/dc/dcmitype/StillImage" />
        <dc:title></dc:title>
      </cc:Work>
    </rdf:RDF>
  </metadata>
  <path
     inkscape:connector-curvature="0"
     style="color:#000000;display:inline;overflow:visible;visibility:visible;opacity:1;fill:#3b577a;fill-opacity:1;fill-rule:nonzero;stroke:none;stroke-width:1;stroke-linecap:butt;stroke-linejoin:miter;stroke-miterlimit:4;stroke-dasharray:none;stroke-dashoffset:0;stroke-opacity:1;marker:none;enable-background:accumulate"
     d="m 0,4 0,30 0,28 2,2 30,0 30,0 2,-2 L 64,34 64,4 32,4 0,4 Z"
     id="path4095" />
  <path
     inkscape:connector-curvature="0"
     style="color:#000000;display:inline;overflow:visible;visibility:visible;opacity:1;fill:#668cbb;fill-opacity:1;fill-rule:nonzero;stroke:none;stroke-width:2.28571415;stroke-linecap:butt;stroke-linejoin:miter;stroke-miterlimit:4;stroke-dasharray:none;stroke-dashoffset:0;stroke-opacity:1;marker:none;enable-background:accumulate"
     d="M 2,0 0,1 0,4 32,4 64,4 64,1 62,0 32,0 2,0 Z"
     id="path4090" />
  <path
     inkscape:connector-curvature="0"
     style="opacity:1;fill:#729bcd;fill-opacity:1;fill-rule:nonzero;stroke-width:1;stroke-linecap:butt;stroke-linejoin:miter;stroke-miterlimit:4;stroke-dasharray:none;stroke-dashoffset:0;stroke-opacity:1"
     d="M 0,3 0,6 2,4 Z"
     id="path4298"
     sodipodi:nodetypes="cccc" />
  <path
     d="M 64,6 62,4 64,3 Z"
     id="path3028"
     style="opacity:1;fill:#4f6f97;fill-opacity:1;stroke:none;stroke-width:0.62299293;stroke-linecap:butt;stroke-linejoin:miter;stroke-miterlimit:4;stroke-dasharray:none;stroke-dashoffset:0;stroke-opacity:1;marker:none"
     inkscape:connector-curvature="0" />
  <g
     id="g3043"
     inkscape:export-filename="folder.png"
     inkscape:export-xdpi="90"
     inkscape:export-ydpi="90"
     transform="translate(-0.62500009,0.082283)" />
  <g
     id="scalable"
     transform="matrix(1.0385892,0,0,1.0385892,1214.7222,1878.8121)"
     inkscape:label="#g3701"
     style="fill:#ffffff" />
  <g
     id="g4166">
    <path
       sodipodi:type="arc"
       style="color:#000000;fill:#6982a3;fill-opacity:1;fill-rule:evenodd;stroke:none;stroke-width:1.3333329;marker:none;visibility:visible;display:inline;overflow:visible;enable-background:accumulate"
       id="path3885"
       sodipodi:cx="33"
       sodipodi:cy="35"
       sodipodi:rx="24"
       sodipodi:ry="24"
       d="M 57,35 A 24,24 0 1 1 9,35 24,24 0 1 1 57,35 z"
       transform="matrix(0.91666667,0,0,0.91666667,1.7499999,1.9166665)" />
    <path
       id="path4049"
       d="m 27,20 0,1 -2,0 c -0.554,0 -1,0.446 -1,1 l 0,1 c 0,0.554 0.446,1 1,1 l 2,0 0,1 2,0 0,-5 -2,0 z m 8,0 0,5 2,0 0,-1 2,0 c 0.554,0 1,-0.446 1,-1 l 0,-1 c 0,-0.554 -0.446,-1 -1,-1 l -2,0 0,-1 -2,0 z m -4,8 0,2.34375 c -0.598903,0.431905 -1,1.229867 -1,2.15625 0,0.926383 0.401097,1.724345 1,2.15625 l 0,1.625 C 30.403104,36.627293 30,37.260396 30,38 c 0,1.104569 0.895431,2 2,2 1.104569,0 2,-0.895431 2,-2 0,-0.739604 -0.403104,-1.372707 -1,-1.71875 l 0,-1.625 C 33.598903,34.224345 34,33.426383 34,32.5 34,31.573617 33.598903,30.775655 33,30.34375 L 33,28 31,28 z m -4,13 0,1 -2,0 0,1 -2,0 0,3 4,0 0,2 3,0 0,-3 -1,0 0,-4 -2,0 z m 8,0 0,4 -1,0 0,3 3,0 0,-2 4,0 0,-3 -2,0 0,-1 -2,0 0,-1 -2,0 z"
       style="color:#000000;fill:#001322;fill-opacity:0.63327372;fill-rule:nonzero;stroke:none;stroke-width:5;marker:none;visibility:visible;display:inline;overflow:visible;enable-background:accumulate"
       inkscape:connector-curvature="0" />
    <path
       style="color:#000000;font-style:normal;font-variant:normal;font-weight:normal;font-stretch:normal;font-size:medium;line-height:normal;font-family:sans-serif;text-indent:0;text-align:start;text-decoration:none;text-decoration-line:none;text-decoration-style:solid;text-decoration-color:#000000;letter-spacing:normal;word-spacing:normal;text-transform:none;direction:ltr;block-progression:tb;writing-mode:lr-tb;baseline-shift:baseline;text-anchor:start;white-space:normal;shape-padding:0;clip-rule:nonzero;display:inline;overflow:visible;visibility:visible;opacity:1;isolation:auto;mix-blend-mode:normal;color-interpolation:sRGB;color-interpolation-filters:linearRGB;solid-color:#000000;solid-opacity:1;fill:#001322;fill-opacity:0.50447226;fill-rule:nonzero;stroke:none;stroke-width:3.55555558;stroke-linecap:round;stroke-linejoin:miter;stroke-miterlimit:4;stroke-dasharray:none;stroke-dashoffset:0;stroke-opacity:1;marker:none;color-rendering:auto;image-rendering:auto;shape-rendering:auto;text-rendering:auto;enable-background:accumulate"
       d="M 32,5.0004878 C 16.007432,5.0004878 3.0004879,18.007432 3.0004879,34 3.000488,49.992568 16.007432,62.999512 32,62.999512 47.992568,62.999512 60.999512,49.992568 60.999512,34 60.999512,18.007432 47.992568,5.0004878 32,5.0004878 Z m 0,3.9990238 C 45.830808,8.9995116 57.000488,20.169191 57.000488,34 57.000488,47.830808 45.830808,59.000488 32,59.000488 18.169191,59.000488 6.9995117,47.830808 6.9995117,34 6.9995117,20.169191 18.169191,8.9995116 32,8.9995116 Z"
       id="path4059"
       inkscape:connector-curvature="0" />
    <path
       sodipodi:open="true"
       sodipodi:end="3.1415927"
       sodipodi:start="0"
       sodipodi:type="arc"
       style="color:#000000;fill:none;stroke:#d2ff25;stroke-width:1.77777778;stroke-linecap:round;stroke-miterlimit:4;stroke-opacity:1;stroke-dasharray:none;marker:none;visibility:visible;display:inline;overflow:visible;enable-background:accumulate"
       id="path3910"
       sodipodi:cx="33"
       sodipodi:cy="35"
       sodipodi:rx="24"
       sodipodi:ry="24"
       d="m 57,35 a 24,24 0 1 1 -48,-10e-7"
       transform="matrix(1.125,0,0,1.125,-5.1250003,-5.3750004)" />
  </g>
</svg>

<svg xmlns="http://www.w3.org/2000/svg" viewBox="0 0 64 64"><g color="#000"><path d="m0 4v30 28l2 2h30 30l2-2v-28-30h-32-32" fill="#3b577a"/><path d="m2 0l-2 1v3h32 32v-3l-2-1h-30-30" fill="#668cbb"/></g><path d="m0 3v3l2-2" fill="#729bcd"/><path d="m64 6l-2-2 2-1" fill="#4f6f97"/><g color="#000"><path d="M57 35A24 24 0 1 1 9 35 24 24 0 1 1 57 35" transform="matrix(.91667 0 0 .91667 1.75 1.917)" fill="#6982a3" fill-rule="evenodd"/><g fill="#001322"><path d="m27 20v1h-2c-.554 0-1 .446-1 1v1c0 .554.446 1 1 1h2v1h2v-5h-2m8 0v5h2v-1h2c.554 0 1-.446 1-1v-1c0-.554-.446-1-1-1h-2v-1h-2m-4 8v2.344c-.599.432-1 1.23-1 2.156 0 .926.401 1.724 1 2.156v1.625c-.597.346-1 .979-1 1.719 0 1.105.895 2 2 2 1.105 0 2-.895 2-2 0-.74-.403-1.373-1-1.719v-1.625c.599-.432 1-1.23 1-2.156 0-.926-.401-1.724-1-2.156v-2.344h-2m-4 13v1h-2v1h-2v3h4v2h3v-3h-1v-4h-2m8 0v4h-1v3h3v-2h4v-3h-2v-1h-2v-1h-2" fill-opacity=".633"/><path d="m32 5c-15.993 0-29 13.01-29 29 0 15.993 13.01 29 29 29 15.993 0 29-13.01 29-29 0-15.993-13.01-29-29-29m0 3.999c13.831 0 25 11.17 25 25 0 13.831-11.17 25-25 25-13.831 0-25-11.17-25-25 0-13.831 11.17-25 25-25" shape-rendering="auto" mix-blend-mode="normal" color-interpolation-filters="linearRGB" isolation="auto" white-space="normal" solid-opacity="1" image-rendering="auto" fill-opacity=".504" solid-color="#000000" color-rendering="auto" shape-padding="0" color-interpolation="sRGB"/></g><path d="m57 35a24 24 0 1 1 -48 -.000001" transform="matrix(1.125 0 0 1.125-5.125-5.375)" fill="none" stroke="#d2ff25" stroke-linecap="round" stroke-width="1.778"/></g></svg>
